science/organic/Glycolipid.svg

<svg xmlns="http://www.w3.org/2000/svg" preserveAspectRatio="xMidYMid" viewBox="165 208.25 196.02 153.45"><clipPath id="a"><path d="M.5.5h539v719H.5z"/></clipPath><rect width="100%" height="100%" x="165" y="208.25" fill="#fff"/><g clip-path="url(#a)"><path stroke="#bebe00" d="M185.63 320.69v-6.95m0-1.98v-6.94m-3.96 15.86v-6.94m0-1.98v-6.95"/><circle cx="183.65" cy="328.62" r="7.43" fill="#ececb3" stroke="#bebe00"/><circle cx="183.65" cy="296.88" r="7.43" fill="#ececb3" stroke="#bebe00"/><path stroke="#bebe00" d="M201.73 320.69v-6.95m0-1.98v-6.94m-3.96 15.86v-6.94m0-1.98v-6.95"/><circle cx="199.75" cy="328.62" r="7.43" fill="#ececb3" stroke="#bebe00"/><circle cx="199.75" cy="296.88" r="7.43" fill="#ececb3" stroke="#bebe00"/><path stroke="#bebe00" d="M217.83 320.69v-6.95m0-1.98v-6.94m-3.96 15.86v-6.94m0-1.98v-6.95"/><circle cx="215.85" cy="328.62" r="7.43" fill="#ececb3" stroke="#bebe00"/><circle cx="215.85" cy="296.88" r="7.43" fill="#ececb3" stroke="#bebe00"/><path stroke="#bebe00" d="M233.93 320.69v-6.95m0-1.98v-6.94m-3.96 15.86v-6.94m0-1.98v-6.95"/><circle cx="231.95" cy="328.62" r="7.43" fill="#ececb3" stroke="#bebe00"/><circle cx="231.95" cy="296.88" r="7.43" fill="#ececb3" stroke="#bebe00"/><path stroke="#bebe00" d="M250.03 320.69v-6.95m0-1.98v-6.94m-3.96 15.86v-6.94m0-1.98v-6.95"/><circle cx="248.05" cy="328.62" r="7.43" fill="#ececb3" stroke="#bebe00"/><circle cx="248.05" cy="296.88" r="7.43" fill="#ececb3" stroke="#bebe00"/><path stroke="#bebe00" d="M266.13 320.69v-6.95m0-1.98v-6.94m-3.96 15.86v-6.94m0-1.98v-6.95"/><circle cx="264.15" cy="328.62" r="7.43" fill="#ececb3" stroke="#bebe00"/><circle cx="264.15" cy="296.88" r="7.43" fill="#ececb3" stroke="#bebe00"/><path stroke="#bebe00" d="M282.23 320.69v-6.95m0-1.98v-6.94m-3.96 15.86v-6.94m0-1.98v-6.95"/><circle cx="280.25" cy="328.62" r="7.43" fill="#ececb3" stroke="#bebe00"/><circle cx="280.25" cy="296.88" r="7.43" fill="#ececb3" stroke="#bebe00"/><path fill="#2d2dfe" fill-rule="evenodd" stroke="#2d2dfe" stroke-linejoin="bevel" d="m264.72 291.88 6.65-3.79-.05-7.61-6.6-3.86-6.59 3.81.03 7.71z" shape-rendering="geometricPrecision"/><path fill="none" stroke="#00001d" stroke-linejoin="bevel" d="m264.72 291.88 6.65-3.79-.05-7.61-6.6-3.86-6.59 3.81.03 7.71z" shape-rendering="geometricPrecision"/><path fill="#d0d0ff" fill-rule="evenodd" stroke="#d0d0ff" stroke-linejoin="bevel" d="M264.52 291.53s2.26-1.14 3.23-1.65c.64-.33 3.23-2.04 3.23-2.04s-2.01 1.1-3.48 1.9c-2.15 1.17-2.98 1.79-2.98 1.79Z" shape-rendering="geometricPrecision"/><path fill="#d0d0ff" fill-rule="evenodd" stroke="#d0d0ff" stroke-linejoin="bevel" d="M270.9 287.94s.15-2.54.2-3.62c.03-.73-.15-3.83-.15-3.83s-.05 2.3-.1 3.97c-.06 2.44.05 3.48.05 3.48Z" shape-rendering="geometricPrecision"/><path fill="#2e2efd" fill-rule="evenodd" stroke="#2e2efd" stroke-linejoin="bevel" d="m259.24 244.36 5.39-5.44-2.08-7.31-7.4-1.95-5.32 5.44 2.09 7.42z" shape-rendering="geometricPrecision"/><path fill="none" stroke="#00001d" stroke-linejoin="bevel" d="m259.24 244.36 5.39-5.44-2.08-7.31-7.4-1.95-5.32 5.44 2.09 7.42z" shape-rendering="geometricPrecision"/><path fill="#d0d0fe" fill-rule="evenodd" stroke="#d0d0fe" stroke-linejoin="bevel" d="M258.96 244.08s1.87-1.71 2.67-2.46c.53-.49 2.56-2.84 2.56-2.84s-1.64 1.61-2.84 2.78c-1.75 1.7-2.39 2.52-2.39 2.52Z" shape-rendering="geometricPrecision"/><path fill="#d0d0fe" fill-rule="evenodd" stroke="#d0d0fe" stroke-linejoin="bevel" d="M264.14 238.9s-.53-2.48-.78-3.54c-.16-.7-1.17-3.64-1.17-3.64s.57 2.22.97 3.85c.6 2.37.98 3.33.98 3.33Z" shape-rendering="geometricPrecision"/><path fill="#2e2efd" fill-rule="evenodd" stroke="#2e2efd" stroke-linejoin="bevel" d="m265.47 259.77 4.6-6.12-3.07-6.96-7.59-.92-4.53 6.11 3.08 7.06z" shape-rendering="geometricPrecision"/><path fill="none" stroke="#00001d" stroke-linejoin="bevel" d="m265.47 259.77 4.6-6.12-3.07-6.96-7.59-.92-4.53 6.11 3.08 7.06z" shape-rendering="geometricPrecision"/><path fill="#d0d0fe" fill-rule="evenodd" stroke="#d0d0fe" stroke-linejoin="bevel" d="M265.15 259.53s1.62-1.95 2.3-2.79c.46-.57 2.16-3.17 2.16-3.17s-1.41 1.82-2.44 3.14c-1.51 1.92-2.02 2.82-2.02 2.82Z" shape-rendering="geometricPrecision"/><path fill="#d0d0fe" fill-rule="evenodd" stroke="#d0d0fe" stroke-linejoin="bevel" d="M269.58 253.7s-.87-2.39-1.26-3.4c-.26-.68-1.65-3.45-1.65-3.45s.86 2.12 1.48 3.68c.91 2.27 1.43 3.17 1.43 3.17Z" shape-rendering="geometricPrecision"/><path fill="#2e2efd" fill-rule="evenodd" stroke="#2e2efd" stroke-linejoin="bevel" d="m265.47 276.13 6.65-3.79-.05-7.61-6.6-3.86-6.59 3.81.03 7.71z" shape-rendering="geometricPrecision"/><path fill="none" stroke="#00001d" stroke-linejoin="bevel" d="m265.47 276.13 6.65-3.79-.05-7.61-6.6-3.86-6.59 3.81.03 7.71z" shape-rendering="geometricPrecision"/><path fill="#d0d0fe" fill-rule="evenodd" stroke="#d0d0fe" stroke-linejoin="bevel" d="M265.27 275.78s2.26-1.14 3.23-1.65c.64-.33 3.23-2.04 3.23-2.04s-2.01 1.1-3.48 1.9c-2.15 1.17-2.98 1.79-2.98 1.79Z" shape-rendering="geometricPrecision"/><path fill="#d0d0fe" fill-rule="evenodd" stroke="#d0d0fe" stroke-linejoin="bevel" d="M271.65 272.19s.15-2.54.2-3.62c.03-.73-.15-3.83-.15-3.83s-.05 2.3-.1 3.97c-.06 2.44.05 3.48.05 3.48Z" shape-rendering="geometricPrecision"/><text text-rendering="geometricPrecision" xml:space="preserve"><tspan x="232.5" y="219" font-family="Times New Roman" font-size="12">Glycolipid</tspan></text><text text-rendering="geometricPrecision" xml:space="preserve"><tspan x="165" y="252.75" font-family="Times New Roman" font-size="12">Sugar Residue</tspan></text><text text-rendering="geometricPrecision" xml:space="preserve"><tspan x="293.25" y="280.5" font-family="Times New Roman" font-size="12">Lipid Residue</tspan></text><path stroke="#2e2efd" d="M243.44 256.5H234"/><path fill="#2e2efd" fill-rule="evenodd" d="m254.25 256.5-13.5-3.38c2.12 1.9 2.12 4.86 0 6.76Z" shape-rendering="geometricPrecision"/><path fill="#bebe00" fill-rule="evenodd" d="m271.83 290.7 13.48-3.85c-2.81-.59-4.29-3.17-3.4-5.9Z" shape-rendering="geometricPrecision"/><text text-rendering="geometricPrecision" xml:space="preserve"><tspan x="202.5" y="358.5" font-family="Times New Roman" font-size="12">Lipid Membrane</tspan></text></g></svg>

<svg xmlns="http://www.w3.org/2000/svg" xmlns:xlink="http://www.w3.org/1999/xlink" width="100%" height="100%" preserveAspectRatio="xMidYMid" viewBox="165 208.25 196.02 153.45"><clipPath id="23126"><rect width="539" height="719" x=".5" y=".5"/></clipPath><g id="drawing"><rect width="100%" height="100%" x="165" y="208.25" fill="#FFF"/><g id="page" clip-path="url(#23126)"><g id="MembraneLine"><line x1="185.63" x2="185.63" y1="320.69" y2="313.74" stroke="#BEBE00" stroke-width="1" shape-rendering="auto"/><line x1="185.63" x2="185.63" y1="311.76" y2="304.82" stroke="#BEBE00" stroke-width="1" shape-rendering="auto"/><line x1="181.67" x2="181.67" y1="320.68" y2="313.74" stroke="#BEBE00" stroke-width="1" shape-rendering="auto"/><line x1="181.67" x2="181.67" y1="311.76" y2="304.81" stroke="#BEBE00" stroke-width="1" shape-rendering="auto"/><circle cx="183.65" cy="328.62" r="7.435" fill="#ECECB3" stroke="#BEBE00" stroke-width="1"/><circle cx="183.65" cy="296.88" r="7.435" fill="#ECECB3" stroke="#BEBE00" stroke-width="1"/><line x1="201.73" x2="201.73" y1="320.69" y2="313.74" stroke="#BEBE00" stroke-width="1" shape-rendering="auto"/><line x1="201.73" x2="201.73" y1="311.76" y2="304.82" stroke="#BEBE00" stroke-width="1" shape-rendering="auto"/><line x1="197.77" x2="197.77" y1="320.68" y2="313.74" stroke="#BEBE00" stroke-width="1" shape-rendering="auto"/><line x1="197.77" x2="197.77" y1="311.76" y2="304.81" stroke="#BEBE00" stroke-width="1" shape-rendering="auto"/><circle cx="199.75" cy="328.62" r="7.435" fill="#ECECB3" stroke="#BEBE00" stroke-width="1"/><circle cx="199.75" cy="296.88" r="7.435" fill="#ECECB3" stroke="#BEBE00" stroke-width="1"/><line x1="217.83" x2="217.83" y1="320.69" y2="313.74" stroke="#BEBE00" stroke-width="1" shape-rendering="auto"/><line x1="217.83" x2="217.83" y1="311.76" y2="304.82" stroke="#BEBE00" stroke-width="1" shape-rendering="auto"/><line x1="213.87" x2="213.87" y1="320.68" y2="313.74" stroke="#BEBE00" stroke-width="1" shape-rendering="auto"/><line x1="213.87" x2="213.87" y1="311.76" y2="304.81" stroke="#BEBE00" stroke-width="1" shape-rendering="auto"/><circle cx="215.85" cy="328.62" r="7.435" fill="#ECECB3" stroke="#BEBE00" stroke-width="1"/><circle cx="215.85" cy="296.88" r="7.435" fill="#ECECB3" stroke="#BEBE00" stroke-width="1"/><line x1="233.93" x2="233.93" y1="320.69" y2="313.74" stroke="#BEBE00" stroke-width="1" shape-rendering="auto"/><line x1="233.93" x2="233.93" y1="311.76" y2="304.82" stroke="#BEBE00" stroke-width="1" shape-rendering="auto"/><line x1="229.97" x2="229.97" y1="320.68" y2="313.74" stroke="#BEBE00" stroke-width="1" shape-rendering="auto"/><line x1="229.97" x2="229.97" y1="311.76" y2="304.81" stroke="#BEBE00" stroke-width="1" shape-rendering="auto"/><circle cx="231.95" cy="328.62" r="7.435" fill="#ECECB3" stroke="#BEBE00" stroke-width="1"/><circle cx="231.95" cy="296.88" r="7.435" fill="#ECECB3" stroke="#BEBE00" stroke-width="1"/><line x1="250.03" x2="250.03" y1="320.69" y2="313.74" stroke="#BEBE00" stroke-width="1" shape-rendering="auto"/><line x1="250.03" x2="250.03" y1="311.76" y2="304.82" stroke="#BEBE00" stroke-width="1" shape-rendering="auto"/><line x1="246.07" x2="246.07" y1="320.68" y2="313.74" stroke="#BEBE00" stroke-width="1" shape-rendering="auto"/><line x1="246.07" x2="246.07" y1="311.76" y2="304.81" stroke="#BEBE00" stroke-width="1" shape-rendering="auto"/><circle cx="248.05" cy="328.62" r="7.435" fill="#ECECB3" stroke="#BEBE00" stroke-width="1"/><circle cx="248.05" cy="296.88" r="7.435" fill="#ECECB3" stroke="#BEBE00" stroke-width="1"/><line x1="266.13" x2="266.13" y1="320.69" y2="313.74" stroke="#BEBE00" stroke-width="1" shape-rendering="auto"/><line x1="266.13" x2="266.13" y1="311.76" y2="304.82" stroke="#BEBE00" stroke-width="1" shape-rendering="auto"/><line x1="262.17" x2="262.17" y1="320.68" y2="313.74" stroke="#BEBE00" stroke-width="1" shape-rendering="auto"/><line x1="262.17" x2="262.17" y1="311.76" y2="304.81" stroke="#BEBE00" stroke-width="1" shape-rendering="auto"/><circle cx="264.15" cy="328.62" r="7.435" fill="#ECECB3" stroke="#BEBE00" stroke-width="1"/><circle cx="264.15" cy="296.88" r="7.435" fill="#ECECB3" stroke="#BEBE00" stroke-width="1"/><line x1="282.23" x2="282.23" y1="320.69" y2="313.74" stroke="#BEBE00" stroke-width="1" shape-rendering="auto"/><line x1="282.23" x2="282.23" y1="311.76" y2="304.82" stroke="#BEBE00" stroke-width="1" shape-rendering="auto"/><line x1="278.27" x2="278.27" y1="320.68" y2="313.74" stroke="#BEBE00" stroke-width="1" shape-rendering="auto"/><line x1="278.27" x2="278.27" y1="311.76" y2="304.81" stroke="#BEBE00" stroke-width="1" shape-rendering="auto"/><circle cx="280.25" cy="328.62" r="7.435" fill="#ECECB3" stroke="#BEBE00" stroke-width="1"/><circle cx="280.25" cy="296.88" r="7.435" fill="#ECECB3" stroke="#BEBE00" stroke-width="1"/></g><g id="Spline"><path fill="#2D2DFE" fill-rule="evenodd" stroke="#2D2DFE" stroke-linejoin="bevel" stroke-width="1" d="M264.72 291.88 C264.72 291.88 271.37 288.09 271.37 288.09 C271.37 288.09 271.32 280.48 271.32 280.48 C271.32 280.48 264.72 276.62 264.72 276.62 C264.72 276.62 258.13 280.43 258.13 280.43 C258.13 280.43 258.16 288.14 258.16 288.14 C258.16 288.14 264.72 291.88 264.72 291.88 Z" shape-rendering="geometricPrecision"/></g><g id="Spline"><path fill="none" fill-rule="evenodd" stroke="#00001D" stroke-linejoin="bevel" stroke-width="1" d="M264.72 291.88 C264.72 291.88 271.37 288.09 271.37 288.09 C271.37 288.09 271.32 280.48 271.32 280.48 C271.32 280.48 264.72 276.62 264.72 276.62 C264.72 276.62 258.13 280.43 258.13 280.43 C258.13 280.43 258.16 288.14 258.16 288.14 C258.16 288.14 264.72 291.88 264.72 291.88 Z" shape-rendering="geometricPrecision"/></g><g id="Spline"><path fill="#D0D0FF" fill-rule="evenodd" stroke="#D0D0FF" stroke-linejoin="bevel" stroke-width="1" d="M264.52 291.53 C264.52 291.53 266.78 290.39 267.75 289.88 C268.39 289.55 270.98 287.84 270.98 287.84 C270.98 287.84 268.97 288.94 267.5 289.74 C265.35 290.91 264.52 291.53 264.52 291.53 Z" shape-rendering="geometricPrecision"/></g><g id="Spline"><path fill="#D0D0FF" fill-rule="evenodd" stroke="#D0D0FF" stroke-linejoin="bevel" stroke-width="1" d="M270.9 287.94 C270.9 287.94 271.05 285.4 271.1 284.32 C271.13 283.59 270.95 280.49 270.95 280.49 C270.95 280.49 270.9 282.79 270.85 284.46 C270.79 286.9 270.9 287.94 270.9 287.94 Z" shape-rendering="geometricPrecision"/></g><g id="Spline"><path fill="#2E2EFD" fill-rule="evenodd" stroke="#2E2EFD" stroke-linejoin="bevel" stroke-width="1" d="M259.24 244.36 C259.24 244.36 264.63 238.92 264.63 238.92 C264.63 238.92 262.55 231.61 262.55 231.61 C262.55 231.61 255.15 229.66 255.15 229.66 C255.15 229.66 249.83 235.1 249.83 235.1 C249.83 235.1 251.92 242.52 251.92 242.52 C251.92 242.52 259.24 244.36 259.24 244.36 Z" shape-rendering="geometricPrecision"/></g><g id="Spline"><path fill="none" fill-rule="evenodd" stroke="#00001D" stroke-linejoin="bevel" stroke-width="1" d="M259.24 244.36 C259.24 244.36 264.63 238.92 264.63 238.92 C264.63 238.92 262.55 231.61 262.55 231.61 C262.55 231.61 255.15 229.66 255.15 229.66 C255.15 229.66 249.83 235.1 249.83 235.1 C249.83 235.1 251.92 242.52 251.92 242.52 C251.92 242.52 259.24 244.36 259.24 244.36 Z" shape-rendering="geometricPrecision"/></g><g id="Spline"><path fill="#D0D0FE" fill-rule="evenodd" stroke="#D0D0FE" stroke-linejoin="bevel" stroke-width="1" d="M258.96 244.08 C258.96 244.08 260.83 242.37 261.63 241.62 C262.16 241.13 264.19 238.78 264.19 238.78 C264.19 238.78 262.55 240.39 261.35 241.56 C259.6 243.26 258.96 244.08 258.96 244.08 Z" shape-rendering="geometricPrecision"/></g><g id="Spline"><path fill="#D0D0FE" fill-rule="evenodd" stroke="#D0D0FE" stroke-linejoin="bevel" stroke-width="1" d="M264.14 238.9 C264.14 238.9 263.61 236.42 263.36 235.36 C263.2 234.66 262.19 231.72 262.19 231.72 C262.19 231.72 262.76 233.94 263.16 235.57 C263.76 237.94 264.14 238.9 264.14 238.9 Z" shape-rendering="geometricPrecision"/></g><g id="Spline"><path fill="#2E2EFD" fill-rule="evenodd" stroke="#2E2EFD" stroke-linejoin="bevel" stroke-width="1" d="M265.47 259.77 C265.47 259.77 270.07 253.65 270.07 253.65 C270.07 253.65 267 246.69 267 246.69 C267 246.69 259.41 245.77 259.41 245.77 C259.41 245.77 254.88 251.88 254.88 251.88 C254.88 251.88 257.96 258.94 257.96 258.94 C257.96 258.94 265.47 259.77 265.47 259.77 Z" shape-rendering="geometricPrecision"/></g><g id="Spline"><path fill="none" fill-rule="evenodd" stroke="#00001D" stroke-linejoin="bevel" stroke-width="1" d="M265.47 259.77 C265.47 259.77 270.07 253.65 270.07 253.65 C270.07 253.65 267 246.69 267 246.69 C267 246.69 259.41 245.77 259.41 245.77 C259.41 245.77 254.88 251.88 254.88 251.88 C254.88 251.88 257.96 258.94 257.96 258.94 C257.96 258.94 265.47 259.77 265.47 259.77 Z" shape-rendering="geometricPrecision"/></g><g id="Spline"><path fill="#D0D0FE" fill-rule="evenodd" stroke="#D0D0FE" stroke-linejoin="bevel" stroke-width="1" d="M265.15 259.53 C265.15 259.53 266.77 257.58 267.45 256.74 C267.91 256.17 269.61 253.57 269.61 253.57 C269.61 253.57 268.2 255.39 267.17 256.71 C265.66 258.63 265.15 259.53 265.15 259.53 Z" shape-rendering="geometricPrecision"/></g><g id="Spline"><path fill="#D0D0FE" fill-rule="evenodd" stroke="#D0D0FE" stroke-linejoin="bevel" stroke-width="1" d="M269.58 253.7 C269.58 253.7 268.71 251.31 268.32 250.3 C268.06 249.62 266.67 246.85 266.67 246.85 C266.67 246.85 267.53 248.97 268.15 250.53 C269.06 252.8 269.58 253.7 269.58 253.7 Z" shape-rendering="geometricPrecision"/></g><g id="Spline"><path fill="#2E2EFD" fill-rule="evenodd" stroke="#2E2EFD" stroke-linejoin="bevel" stroke-width="1" d="M265.47 276.13 C265.47 276.13 272.12 272.34 272.12 272.34 C272.12 272.34 272.07 264.73 272.07 264.73 C272.07 264.73 265.47 260.87 265.47 260.87 C265.47 260.87 258.88 264.68 258.88 264.68 C258.88 264.68 258.91 272.39 258.91 272.39 C258.91 272.39 265.47 276.13 265.47 276.13 Z" shape-rendering="geometricPrecision"/></g><g id="Spline"><path fill="none" fill-rule="evenodd" stroke="#00001D" stroke-linejoin="bevel" stroke-width="1" d="M265.47 276.13 C265.47 276.13 272.12 272.34 272.12 272.34 C272.12 272.34 272.07 264.73 272.07 264.73 C272.07 264.73 265.47 260.87 265.47 260.87 C265.47 260.87 258.88 264.68 258.88 264.68 C258.88 264.68 258.91 272.39 258.91 272.39 C258.91 272.39 265.47 276.13 265.47 276.13 Z" shape-rendering="geometricPrecision"/></g><g id="Spline"><path fill="#D0D0FE" fill-rule="evenodd" stroke="#D0D0FE" stroke-linejoin="bevel" stroke-width="1" d="M265.27 275.78 C265.27 275.78 267.53 274.64 268.5 274.13 C269.14 273.8 271.73 272.09 271.73 272.09 C271.73 272.09 269.72 273.19 268.25 273.99 C266.1 275.16 265.27 275.78 265.27 275.78 Z" shape-rendering="geometricPrecision"/></g><g id="Spline"><path fill="#D0D0FE" fill-rule="evenodd" stroke="#D0D0FE" stroke-linejoin="bevel" stroke-width="1" d="M271.65 272.19 C271.65 272.19 271.8 269.65 271.85 268.57 C271.88 267.84 271.7 264.74 271.7 264.74 C271.7 264.74 271.65 267.04 271.6 268.71 C271.54 271.15 271.65 272.19 271.65 272.19 Z" shape-rendering="geometricPrecision"/></g><g><text text-anchor="start" text-rendering="geometricPrecision" xml:space="preserve"><tspan x="232.5" y="219" fill="#000" font-family="Times New Roman" font-size="12">Glycolipid</tspan></text></g><g><text text-anchor="start" text-rendering="geometricPrecision" xml:space="preserve"><tspan x="165" y="252.75" fill="#000" font-family="Times New Roman" font-size="12">Sugar Residue</tspan></text></g><g><text text-anchor="start" text-rendering="geometricPrecision" xml:space="preserve"><tspan x="293.25" y="280.5" fill="#000" font-family="Times New Roman" font-size="12">Lipid Residue</tspan></text></g><g id="Arrow"><line x1="243.44" x2="234" y1="256.5" y2="256.5" stroke="#2E2EFD" stroke-width="1" shape-rendering="auto"/><path fill="#2E2EFD" fill-rule="evenodd" stroke="#2E2EFD" stroke-linejoin="miter" stroke-miterlimit="11.548" stroke-width="0" d="M254.25 256.5 L240.75 253.12 C242.87 255.02 242.87 257.98 240.75 259.88 Z" shape-rendering="geometricPrecision"/></g><g id="Arrow"><line x1="281.27" x2="289.5" y1="285.25" y2="280.5" stroke="#BEBE00" stroke-width="1" shape-rendering="auto"/><path fill="#BEBE00" fill-rule="evenodd" stroke="#BEBE00" stroke-linejoin="miter" stroke-miterlimit="11.548" stroke-width="0" d="M271.83 290.7 L285.31 286.85 C282.5 286.26 281.02 283.68 281.91 280.95 Z" shape-rendering="geometricPrecision"/></g><g><text text-anchor="start" text-rendering="geometricPrecision" xml:space="preserve"><tspan x="202.5" y="358.5" fill="#000" font-family="Times New Roman" font-size="12">Lipid Membrane</tspan></text></g></g></g></svg>
